X:NEW 15-01
T:Coomaree
C:David Linton <djl@colourcountry.net>
M:3/2
R:swung
K:Ador
P:A
Aede dcAG AcdB |1 Aede dcef gdBG :|2 AFAc BAGF EAAG ||
P:B
Aede dcAG AcdB |1 Aede dcef gdBG :|2 AFAc egec BdBG ||
P:C
Aede dcAG AcdB    Aede dceg gdBG agab c'gec gdBG fagf egfe dccB ||

